build/category/OrganisationSolid.svg

<svg xmlns="http://www.w3.org/2000/svg" fill="none" viewBox="0 0 24 24" focusable="false"><path d="M0 0H24V24H0z"/><path fill="#74767B" fill-rule="evenodd" d="M5.25313 3.3418C4.53515 3.3418 3.95312 3.92382 3.95312 4.6418L3.95312 19.7266C3.95312 20.4446 4.53515 21.0266 5.25313 21.0266L6.07776 21.0266L6.07776 12.5981C6.07776 11.1621 7.24182 9.99808 8.67776 9.99808L15.9768 9.99808L15.9768 4.6418C15.9768 3.92383 15.3948 3.3418 14.6768 3.3418L5.25313 3.3418ZM7.36731 12.5657C7.36731 11.8477 7.94934 11.2657 8.66731 11.2657L18.6893 11.2657C19.4072 11.2657 19.9893 11.8477 19.9893 12.5657L19.9893 19.7056C19.9893 20.4235 19.4072 21.0056 18.6893 21.0056L16.8001 21.0056C16.0822 21.0056 15.5001 20.4235 15.5001 19.7056L15.5001 15.7212C15.5001 15.3279 15.1762 15.0118 14.783 15.0214L12.183 15.085C11.8032 15.0943 11.5001 15.4048 11.5001 15.7848L11.5001 19.7722C11.5001 20.5022 10.8992 21.0891 10.1694 21.0718L7.36731 21.0056L7.36731 12.5657ZM9.30642 7.6517C9.30642 8.01068 9.59744 8.30169 9.95642 8.30169C10.3154 8.30169 10.6064 8.01068 10.6064 7.6517L10.6064 6.08914C10.6064 5.73015 10.3154 5.43914 9.95642 5.43914C9.59743 5.43914 9.30642 5.73015 9.30642 6.08914L9.30642 7.6517ZM12.5663 8.30169C12.2073 8.30169 11.9163 8.01068 11.9163 7.6517L11.9163 6.08914C11.9163 5.73015 12.2073 5.43914 12.5663 5.43914C12.9253 5.43914 13.2163 5.73015 13.2163 6.08914L13.2163 7.6517C13.2163 8.01068 12.9253 8.30169 12.5663 8.30169ZM6.71365 7.6517C6.71365 8.01068 7.00466 8.30169 7.36365 8.30169C7.72263 8.30169 8.01365 8.01068 8.01365 7.6517L8.01365 6.08914C8.01365 5.73015 7.72263 5.43914 7.36365 5.43914C7.00466 5.43914 6.71365 5.73015 6.71365 6.08914L6.71365 7.6517Z"/></svg>

<svg xmlns="http://www.w3.org/2000/svg" fill="none" viewBox="0 0 24 24" focusable="false"><path fill="#74767B" fill-rule="evenodd" d="M5.25 3.34c-.72 0-1.3.58-1.3 1.3v15.08c0 .72.58 1.3 1.3 1.3h.82v-8.43c0-1.43 1.17-2.6 2.6-2.6h7.3V4.64c0-.72-.58-1.3-1.3-1.3zm2.11 9.22c0-.72.58-1.3 1.3-1.3h10.02c.72 0 1.3.58 1.3 1.3v7.14c0 .72-.58 1.3-1.3 1.3h-1.89c-.71 0-1.29-.58-1.29-1.3v-3.98a.7.7 0 0 0-.72-.7l-2.6.06c-.38.01-.68.32-.68.7v3.99c0 .73-.61 1.31-1.34 1.3L7.36 21zM9.3 7.65c0 .36.29.65.65.65s.65-.29.65-.65V6.08c0-.35-.29-.65-.65-.65s-.65.3-.65.65zm3.26.65c-.36 0-.65-.29-.65-.65V6.08c0-.35.29-.65.65-.65s.65.3.65.65v1.57c0 .36-.29.65-.65.65m-5.85-.65c0 .36.29.65.65.65s.65-.29.65-.65V6.08c0-.35-.29-.65-.65-.65s-.65.3-.65.65z"/></svg>
